X: 08013
T: BOS' HORNPIPE
C: Bob McQuillen 3 Mar 90
B: Bob's Note Book 8 #13
%R: hornpipe, reel
Z: 2021 John Chambers <jc:trillian.mit.edu>
M: C
L: 1/8
K: D
fe \
| d2A2 ABAG | FAde fdgf | eBef gfed | c2A2 Agfe |\
| dAFA BAFA | dfaf gfed | cedB Aceg | f2d2 d2 :|
|: de \
| fgab afde | fgab a2fa | gbag fdgf | edcB A2AG |\
| FAde dAFA | BAFA dAFD | dfaf gecd | e2d2 d2 :|
%%begintext align
%% The New England
%% dance scene got a great boost when Bo
%% Bradham moved up here from North
%% Carolina. Thanks for coming, Bo - we
%% sure like your fiddling!
%%endtext

%%sep 1 1 500

%%sep 1 1 500

